X: 3487
T: Bicycle, The
R: slide
M: 12/8
K: Edorian
d|:B2E E2F G2E E2A|B2E E2F A3 d2c|
B2E E2F G2E E2A|B2c d2B A3 F2A:|
|:B2e e2d B2A F2A|B2e e2f d3 B2A|
B2e e2d B2c d2B|A2F D2F A3 F2A:|

